!!!COM: Beethoven
!!!OTL: Zehn Variationen uber "la stessa, la stessissima" aus "Falstaff" von A. Salieri
!!!Variation: Variation 9 b
**function	**harm	**kern	**kern
*M4/4	*M4/4	*staff2	*staff1
*Bb:	*Bb:	*clefF4	*clefG2
*tb16	*	*k[b-e-]	*k[b-e-]
*	*	*M4/4	*M4/4
*	*	*Bb:	*Bb:
=	=	=160	=160
*	*	*	*^
1D	1V	16r	4f'	4r
.	.	(16FFFLL	.	.
.	.	16AAA	.	.
.	.	16CCJJ)	.	.
.	.	4FF'	4r	4F 4A
.	.	16r	4f'	4r
.	.	(16FFLL	.	.
.	.	16AA	.	.
.	.	16CJJ)	.	.
.	.	4F'	4r	4F 4A
=	=	=161	=161	=161
4D	4viio/V	8r	4f'	8r
.	.	8FF 8E	.	8G 8B-
4D	4V7	8r	4f'	8r
.	.	8FF 8E-	.	8A 8c
4D	4I64	8r	4f'	8r
.	.	8FF 8D	.	8B- 8d
4D	4V	8r	4f'	8r
.	.	8FF 8C	.	8A 8e-
*	*	*	*v	*v
=	=	=162	=162
1D	1I	4BBB- 4BB-	8f'L
.	.	.	8B-'J 8d'
.	.	4r	8b-'L
.	.	.	8d'J 8f'
.	.	2r	8dd'L
.	.	.	8f'J 8b-'
.	.	.	8ff'L
.	.	.	8ff'J
=	=	=163	=163
2D	2I64	4r	1ff
.	.	4F 4B- 4d	.
2D	2V7	4r	.
.	.	4F 4c 4e-	.
=	=	=164	=164
1T	1I	4r	8ff'L
.	.	.	8b-'J 8dd'
.	.	4B- 4d	8bb-'L
.	.	.	8dd'J 8ff'
.	.	2r	8ddd'L
.	.	.	8ff'J 8bb-'
.	.	.	8fff'L
.	.	.	8fff'J
=	=	=165	=165
2T	2I64	1FF	4r
.	.	.	4ff 4bb- 4ddd 4fff
2T	2V7	.	4r
.	.	.	4ff 4aa 4ccc 4fff
=	=	=166	=166
1T	1I	4BBB- 4BB-	4.bb-
.	.	4r	.
.	.	.	16aaLL
.	.	.	16bb-JJ
.	.	2r	4b-
.	.	.	4r
=	=	=	=
*-	*-	*-	*-
